packages/kaspersky-hexa-ui-icons/src/iconsSVGs/24/SecurityLive.svg

<svg width="24" height="24" viewBox="0 0 24 24" fill="none" xmlns="http://www.w3.org/2000/svg">
<path fill-rule="evenodd" clip-rule="evenodd" d="M8.3883 3.0219C8.77882 2.63137 9.41199 2.63137 9.80251 3.0219L14.1833 7.40268L16.2931 5.29289C16.6836 4.90237 17.3168 4.90237 17.7073 5.29289C18.0978 5.68342 18.0978 6.31658 17.7073 6.70711L15.5975 8.81689L20.512 13.7314C20.9025 14.1219 20.9025 14.7551 20.512 15.1456L19.9661 15.6914C18.0619 17.5957 15.4848 18.4168 13.0002 18.1548V20H16.0002C16.5525 20 17.0002 20.4477 17.0002 21C17.0002 21.5523 16.5525 22 16.0002 22H8.00019C7.44791 22 7.00019 21.5523 7.00019 21C7.00019 20.4477 7.44791 20 8.00019 20H11.0002V17.6976C9.84755 17.2836 8.76587 16.6149 7.84244 15.6914C4.49458 12.3436 4.49458 6.91562 7.84244 3.56776L8.3883 3.0219ZM9.09815 5.14596C6.69097 7.72308 6.74381 11.7644 9.25665 14.2772C11.7695 16.7901 15.8108 16.8429 18.3879 14.4357L9.09815 5.14596Z" fill="black"/>
</svg>

<svg xmlns="http://www.w3.org/2000/svg" width="24" height="24" fill="none" viewBox="0 0 24 24"><path fill="#000" fill-rule="evenodd" d="M8.3881 3.0219c.3905-.3905 1.0237-.3905 1.4142 0l4.3808 4.3808 2.1098-2.1098c.3905-.3905 1.0237-.3905 1.4142 0s.3905 1.0237 0 1.4142L15.5973 8.817l4.9145 4.9145c.3905.3905.3905 1.0237 0 1.4142l-.5459.5458c-1.9042 1.9042-4.4813 2.7254-6.9659 2.4634V20h3c.5523 0 1 .4477 1 1s-.4477 1-1 1H8c-.5523 0-1-.4477-1-1s.4477-1 1-1h3v-2.3024c-1.1526-.414-2.2343-1.0827-3.1577-2.0062-3.348-3.3478-3.348-8.7758 0-12.1236zm.7099 2.124c-2.4072 2.5772-2.3544 6.6185.1585 9.1313 2.5128 2.5129 6.5541 2.5657 9.1312.1585z"/></svg>
